X:1
T:Oh, Hear the Savior’s Voice
T:Oh, Hear the Savior’s Voice
T:George H. Ryder
T:George H. Ryder, 1887
T:Public Domain Courtesy of the Cyber Hymnal™
C:George H. Ryder
Z:Public Domain
Z:Courtesy of the Cyber Hymnal™
%%score ( 1 2 ) ( 3 4 )
L:1/8
Q:1/4=105
M:4/4
K:Eb
V:1 treble 
V:2 treble 
V:3 bass 
V:4 bass 
V:1
 [EG]3 [EF] (ED) (EF) | [EG]2 [DA]2 [EB]2 [EG]2 | [Ec]3 [Ec] [EB]2 [EG]2 | [EG]3 [EF] [DF]4 | %4
w: 1.~Bro- ther! hear * the *|Sav- ior call- ing,|See the sweat- drops|on His brow;|
w: 2.~Bro- ther! see * the *|Sav- ior stand- ing,|Mild com- pas- sion|in His eye,|
w: 3.~Bro- ther! hast- * en *|thy re- pent- ing,|He is rea- dy|to for- give;|
w: 4.~Bro- ther! hast- * en *|His re- joic- ing,|An- gels wait to|bless you now;|
 [EG]3 [EF] (ED) (EF) | [EG]2 [DA]2 [EB]2 [EG]2 | [Ee]3 [Ec] [EB]2 [EG]2 | [DG]3 [DF] E4 || %8
w: Bro- ther! see * the *|tear- drops fall- ing,|Hark- en! He is|call- ing now.|
w: Lov- ing- ly * His *|arms ex- tend- ing,|Bro- ther! say, why|will you die?|
w: Bro- ther! hast- * en *|thy re- lent- ing,|While He gent- ly|bids thee live.|
w: They are list- * ening *|for the voic- ing|Of your ear- nest,|sol- emn vow.|
[M:6/8]"^Refrain" [EG] | [EG]2 [EG] (GF)[EG] | A3- [DA]2 [DA] | [DA]2 [DA] (AG)[DA] | %12
w: ||||
w: Oh,|hear the Sav- * ior’s|voice, In ac-|* cents sweet * and|
w: ||||
w: ||||
 B3- [EB]2 [EB] | [EB]2 [EB] (B=A)[EB] | [Ec]3- [Ec]2 [Af] | [Ge]2 [Ge] ([Fd][Ec])[Fd] | %16
w: ||||
w: clear; He bids|* your heart * re-|joice, * You|need no long- * er|
w: ||||
w: ||||
 [Ge]3- [Ge]2 |] %17
w: |
w: fear. *|
w: |
w: |
V:2
 x4 ED E2 | x8 | x8 | x8 | x4 ED E2 | x8 | x8 | x4 E4 ||[M:6/8] x | x3 E2 x | D2 D x3 | x3 D2 x | %12
 E2 E x3 | x3 E2 x | x6 | x6 | x5 |] %17
V:3
 [E,B,]3 [E,A,] (G,F,) (G,A,) | [E,B,]2 [F,B,]2 [G,B,]2 [E,B,]2 | A,3 A, [G,B,]2 [E,B,]2 | %3
 [C,=A,]3 [C,A,] [B,,B,]4 | [E,B,]3 [E,A,] (G,F,) (G,A,) | [E,B,]2 [F,B,]2 [G,B,]2 [E,B,]2 | %6
 [G,B,]3 A, [G,B,]2 [E,B,]2 | [B,,B,]3 [B,,A,] [E,G,]4 ||[M:6/8] [E,B,] | %9
 [E,B,]2 [E,B,] [E,B,]2 [E,B,] | ([F,B,]2 [F,B,] [F,B,]2) [F,B,] | [F,B,]2 [F,B,] [F,B,]2 [F,B,] | %12
 ([G,B,]2 [G,B,] [G,B,]2) [G,B,] | [G,B,]2 [G,B,] [G,B,]2 [G,B,] | A,2 (A, A,2) [A,C] | %15
 B,2 B, [B,,B,]2 [B,,B,] | [E,B,]3- [E,B,]2 |] %17
V:4
 x4 E,2 E,2 | x8 | A,3 A, x4 | x8 | x4 E,2 E,2 | x8 | x3 A, x4 | x8 ||[M:6/8] x | x6 | x6 | x6 | %12
 x6 | x6 | (A,2 A,) A,2 x | B,2 B, x3 | x5 |] %17

